**kern
*clefF4
*k[]
*M4/4
=1
*^
2r	2.AA-X 2.C
2C 2E	.
.	4GG 4BB-X
=2	=2
2C 2F	2FF 2AA-X
2r	2r
=3||	=3||
[1E	2r
.	[2C
=4	=4
*	*^
2E]	1AA-X	2AA-\ 2C]
2D-X 2F	.	2DD-X\
*	*v	*v
=5||	=5||
2r	[1AA-X
[2E	.
=6	=6
2E]	1AA-] 1C 1C
[2E	.
=7	=7
2E]	1GG 1C 1C
2BB 2D 2F	.
*v	*v
=8
1C 1C 1E
=9||
*^
1C 1C 1A-X	2E-X
.	2En
=10	=10
2A	2AA 2C 2E
2B	2GG#X 2BB 2E
!!linebreak:original
=11	=11
*	*^
2c	2E	1AA
2r	2AA	.
*	*v	*v
=12||	=12||
2E-X	1AA-X 1C [1c
2En	.
*v	*v
=13
1AA 1C 1F 1c]
=14||
*^
2E-X	1C 1A-X
2En	.
*v	*v
=15
1D-X 1F 1B-X
=16||
*^
2G	1C 1E
2A-X	.
*v	*v
=17
1GG 1BB 1D 1G
=18||
*^
1CC 1C 1E	2GG
.	2AA-X
*v	*v
=19
1CC 1GG 1C 1E-X
==
*-
!!!system-decoration: [(s1
